X: 1
T: My Tocher's The Jewel
M: 6/8
L: 1/8
R: jig
K: Amin
|:e|cAA A2G|Acd eag|edc e2d|cGG G2e|
cAA A2G|Acd eag|ega ged|cAA A2:|
|:g|gag gec|deg a2a|ged BdB|AGG G2e|
ABA ABA|Acd eag|ega ged|cAA A2:|
